X: 86
T: Pollonesse #86
M: 3/4
L: 1/16
K: G
Q:120
G2BG A2cA B4|G2D2 B,2DB, G,4|G2GB A2Ac B2Bd|ecAF A4 G4:|
B2G,2 c2G,2 d2G,2|d2Bd c2Ac B2G,2|B2G,2 c2G,2 d2G,2|d2Bd c2Ac B2G,2|
d3B cdef g4| e3c Bcde d4|B,2d2 A,2c2 G,2B2|dcAF A4 G4:|

